X:12
T:Steven's March
C:Mike Mahar
L:1/8
Q:1/4=130
M:4/4
K:A
AB |: "A"c2 c3/2d/ cB AF | E2 E3/2F/ A2 AB | c2 c3/2c/ dc BA | "E"B2 B3/2c/ B2 AB |
"A"c2 c3/2d/ cB AF | E2 E3/2F/ A2 AB | c2 c3/2c/ dc BA |1 "  E"B2 A3/2B/ "A"A2 AB :|2" E"B2 A3/2B/ "A"A2 cd |
|: "A"e2 e3/2e/ fe cB | A2 A3/2B/ c2 cd | e2 e3/2e/ fe dc | "E"B2 B3/2c/ B2 AB |
"A"c2 c3/2d/ cB AF |E2 E3/2F/ A2 AB | c2 e3/2c/ dc BA |1 "  E "B2 A3/2B/ "A"A2 cd :|2 "  E"B2 A3/2B/ "A"A4 |]

